images/partners/logos/brave.svg

<svg height="132" viewBox="0 0 430 132" width="430" xmlns="http://www.w3.org/2000/svg" xmlns:xlink="http://www.w3.org/1999/xlink"><linearGradient id="a" x1="0%" x2="100%" y1="50.705516%" y2="50.705516%"><stop offset="0" stop-color="#f50"/><stop offset=".409877232" stop-color="#f50"/><stop offset=".581981215" stop-color="#ff2000"/><stop offset="1" stop-color="#ff2000"/></linearGradient><linearGradient id="b" x1="2.148438%" x2="100%" y1="50.705516%" y2="50.705516%"><stop offset="0" stop-color="#ff452a"/><stop offset="1" stop-color="#ff2000"/></linearGradient><g fill="none" fill-rule="evenodd"><g fill="#fff" fill-rule="nonzero" transform="translate(143 26)"><path d="m.21764947 45.5301365v-45.32585947h4.34026443c3.53605453 0 6.4025931 2.86367203 6.4025931 6.3961905v20.15315077c6.9556721-6.1995287 12.8708057-8.6812132 20.7545258-8.8404156 15.1206188-.3090399 28.2445285 10.9100468 29.4913 25.9687208 1.4905011 17.989871-11.6052859 31.5314398-28.6663685 31.5314398-18.7296941 0-32.32231483-11.6030454-32.32231483-29.8832268zm10.56474733 3.5586419c1.059287 9.364847 10.0116683 17.1002106 19.451509 17.2500482 12.2989783.1872969 20.6795321-7.8196473 20.6795321-19.6661787 0-11.8465315-8.1930694-19.6661787-20.1452015-19.6661787-12.7770635-.0280946-21.4388439 9.2431039-19.9858396 22.0823092z"/><path d="m79.1298437 19.0463492v8.0724981c6.7588135-7.4918776 10.761606-9.5053197 18.6734487-9.5053197 2.3014516.0024781 4.5990846.1872323 6.8713046.552526v10.7227498c-2.42465-.6658354-4.9285547-.9997756-7.4431321-.9926738-5.7276491 0-10.5366246 1.8729694-14.0613318 5.4128816-3.093493 3.0997643-4.0121667 5.5252597-4.0121667 10.3949802v29.8551322h-11.1365748v-54.5127744z"/><path d="m107.318127 37.0736797c.571827-5.3098683 1.602992-8.1848763 3.890302-10.9475062 4.583994-5.6189082 12.833309-8.5126459 24.513588-8.5126459 9.280479 0 16.039293 1.4421864 20.735778 4.532586 3.899676 2.5378735 5.502667 6.302542 5.502667 12.9328537v24.2081295c0 5.3098682 1.378011 7.1828376 5.155822 7.0798243.843978-.0297466 1.685747-.1047735 2.521666-.2247563v7.2952158c-1.878059.6411766-3.856321.9393638-5.84014.8802956-6.983795 0-10.189779-2.0977257-12.364598-8.1848763-6.871304 6.3025421-13.976964 8.9527938-24.166742 8.9527938-13.630118 0-21.991923-6.1901639-21.991923-16.2573744-.059719-5.7408103 3.320874-10.9614795 8.586786-13.2606234 4.124658-1.7699561 6.646323-2.322482 18.439094-3.5399122 10.077287-.9926737 11.802144-1.2174301 14.661282-2.1070905 3.093493-.9926738 4.471503-2.6502517 4.471503-5.4128816 0-5.8623942-4.921466-8.5126459-15.233109-8.5126459-9.749191 0-14.773773 1.9291585-16.789231 6.855068-.998255 2.5189267-3.428297 4.1793394-6.140115 4.1954514zm44.05884 9.2899282c-7.065299 2.0529308-14.320401 3.386409-21.654451 3.98006-9.964797.9926738-13.05829 2.875008-13.05829 7.8477418 0 5.5252597 4.583994 8.4283623 13.630117 8.4283623 7.443132 0 13.05829-1.8729694 17.070457-5.5252598 3.205984-2.9873861 4.012167-5.0851119 4.012167-10.3013317z"/><path d="m196.523216 73.5497588h-2.868512c-2.527002.0159361-4.838623-1.4191867-5.943256-3.6897498l-24.026129-50.8136598h6.674446c3.889347-.0310249 7.430103 2.2352905 9.027375 5.7781106l16.029918 36.5229033 16.564249-36.663376c1.620868-3.4870055 5.13215-5.7059086 8.980504-5.6750973l6.065121-.0003168-24.588582 50.9076251c-1.116139 2.2395404-3.410916 3.6491806-5.915134 3.6335607z"/><path d="m234.554432 49.4540074c1.143655 10.5073584 9.374221 17.0252919 21.645076 17.0252919 6.965047 0 12.186488-2.0696312 15.420594-6.1995287 1.886316-2.368265 4.751067-3.747487 7.780604-3.7459388h6.458838c-5.624532 12.3803277-15.692446 18.4674782-30.700574 18.4674782-18.748443 0-31.384893-11.3876539-31.384893-28.4129458 0-17.0252918 12.9458-28.9654717 31.619248-28.9654717 13.508253 0 24.372976 6.0777857 28.750737 16.2573744 1.949838 4.6824235 2.746647 8.8404155 2.746647 15.5831054zm41.002843-8.4283623c-2.521665-9.6176979-9.964797-15.0399443-20.27644-15.0399443-10.311644 0-17.754775 5.4222464-20.388931 15.0399443z"/></g><g transform="translate(.38181)"><path d="m108.381438 31.6316453 3.088588-7.5905693s-3.930931-4.216983-8.704204-8.9962303c-4.7732734-4.7792473-14.8813815-1.9679254-14.8813815-1.9679254l-11.512012-13.07686407h-20.2162162-20.2162162l-11.512012 13.07686407s-10.1081081-2.8113219-14.8813814 1.9679254c-4.77327327 4.7792473-8.7042042 8.9962303-8.7042042 8.9962303l3.08858859 7.5905693-3.93093093 11.2452878s11.56114864 43.8439716 12.91591594 49.1981343c2.6674174 10.5424576 4.4924925 14.6188746 12.0735735 19.9603856 7.5810811 5.341512 21.3393394 14.618875 23.5855856 16.024535 2.2462463 1.405661 5.0540541 3.800064 7.5810811 3.800064s5.3348348-2.394403 7.5810811-3.800064c2.2462462-1.40566 16.0045045-10.683023 23.5855856-16.024535 7.5810811-5.341511 9.4061561-9.417928 12.0735736-19.9603856 1.3544864-5.3541627 12.9159154-49.1981343 12.9159154-49.1981343z" fill="url(#a)"/><path d="m84.6554616 21.3703201s14.8072552 17.9221775 14.8072552 21.7526037c0 3.8304261-1.8626997 4.8413775-3.7355075 6.8326369-1.8728078 1.9912593-10.0522327 10.6878027-11.1026336 11.8044597-1.0504009 1.1169383-3.2371216 2.8101975-1.9508649 5.8579516 1.2862568 3.0477542 3.1837733 6.9259728 1.0737057 10.8595745-2.1103483 3.9336017-5.7254009 6.5590952-8.0418423 6.1250271-2.3164415-.4343492-7.7565691-3.2808127-9.7571322-4.5810491-2.000563-1.3002364-8.3411546-6.5360424-8.3411546-8.5393905 0-2.0030668 6.5542658-5.5998722 7.7649925-6.4171235 1.2112883-.8169701 6.7342462-3.9799885 6.8474009-5.2214682.1128739-1.2417609.0699144-1.6058271-1.560018-4.6735417-1.6299325-3.0679956-4.5652148-7.1618427-4.0766562-9.8857325.4885586-2.7236087 5.2225225-4.1399527 8.6008769-5.4174174 3.3777928-1.2771836 9.8820796-3.689579 10.6943784-4.0646093.8128603-.3753115.6028363-.7326305-1.8587688-.9662514-2.4610436-.2336208-9.4457463-1.1619193-12.5947027-.2831001-3.1489565.8788193-8.5287162 2.215884-8.964488 2.9248994s-.8201607.7329116-.3725961 3.1787617c.4472838 2.4458501 2.7513709 14.1819948 2.9748724 16.26659.2237823 2.0845952.6612387 3.4627053-1.5836036 3.9766149-2.2451231.5139097-6.0241517 1.4062233-7.3227628 1.4062233s-5.0779204-.8923136-7.3227628-1.4062233c-2.2451231-.5139096-1.8076666-1.8920197-1.5838843-3.9766149.2237822-2.0845952 2.5275886-13.8207399 2.9751531-16.26659.4472838-2.4458501.0628949-2.4697463-.3725961-3.1787617-.4357717-.7090154-5.8158123-2.0460801-8.9647687-2.9248994-3.1489565-.8788192-10.1333784.0494793-12.5947027.2831001-2.4613244.2336209-2.6713484.5909399-1.8587688.9662514.8125796.3750303 7.3168663 2.7874257 10.6946591 4.0646093 3.3780736 1.2774647 8.1123184 2.6938087 8.6008769 5.4174174.4885586 2.7238898-2.4470045 6.8177369-4.0766561 9.8857325-1.6299325 3.0677146-1.6731727 3.4317808-1.5600181 4.6735417.1128739 1.2414797 5.6361127 4.4044981 6.8471202 5.2214682 1.2110075.8172513 7.7649925 4.4140567 7.7649925 6.4171235 0 2.0033481-6.3403109 7.2391541-8.3408739 8.5393905-2.0005631 1.3002364-7.4406907 4.1466999-9.7571321 4.5810491-2.3164415.4340681-5.931494-2.1914254-8.0418424-6.1250271-2.1100676-3.9336017-.212551-7.8118203 1.0734249-10.8595745 1.2862568-3.0477541-.9001832-4.7410133-1.9508648-5.8579516-1.0501202-1.116657-9.2298259-9.8132004-11.1026337-11.8044597-1.8728078-1.9912594-3.7352267-3.0022108-3.7352267-6.8326369 0-3.8304262 14.8072553-21.7526037 14.8072553-21.7526037s12.4947447 2.3896237 14.1794294 2.3896237 5.3348348-1.405661 8.7042042-2.5301898 5.6156156-1.1326816 5.6156156-1.1326816 2.2462463.0081528 5.6156156 1.1326816c3.3693694 1.1245288 7.0195195 2.5301898 8.7042042 2.5301898s14.1794295-2.3896237 14.1794295-2.3896237zm-11.1004436 68.5558853c.9164685.5746342.357434 1.6578365-.4773273 2.2487764-.8350421.5909399-12.0553228 9.2902942-13.1441907 10.2517662-1.0891486.961754-2.6893183 2.549869-3.7773438 2.549869-1.0880256 0-2.688476-1.588115-3.7773439-2.549869-1.0891486-.961472-12.3091486-9.6608263-13.1441907-10.2517662-.835042-.5909399-1.3937958-1.6741422-.4773273-2.2487764.9167492-.5743531 3.7843634-2.0241519 7.7414069-4.074449 3.956482-2.0500159 8.8878348-3.7930356 9.657455-3.7930356.7696201 0 5.7006921 1.7430197 9.6577357 3.7930356 3.9567628 2.0502971 6.8243769 3.5000959 7.7411261 4.074449z" fill="#fff"/><path d="m87.8844405 13.0769203-11.512012-13.07686407h-20.2162162-20.2162162l-11.512012 13.07686407s-10.1081081-2.8113219-14.8813814 1.9679254c0 0 13.4774775-1.2181458 18.1103604 6.3254744 0 0 12.4947447 2.3896237 14.1794294 2.3896237s5.3348348-1.405661 8.7042042-2.5301898 5.6156156-1.1326816 5.6156156-1.1326816 2.2462463.0081528 5.6156156 1.1326816c3.3693694 1.1245288 7.0195195 2.5301898 8.7042042 2.5301898s14.1794295-2.3896237 14.1794295-2.3896237c4.6328828-7.5436202 18.1103604-6.3254744 18.1103604-6.3254744-4.7732734-4.7792473-14.8813815-1.9679254-14.8813815-1.9679254" fill="url(#b)"/></g></g></svg>

<?xml version="1.0" encoding="UTF-8"?>
<svg width="430px" height="132px" viewBox="0 0 430 132" version="1.1" xmlns="http://www.w3.org/2000/svg" xmlns:xlink="http://www.w3.org/1999/xlink">
    <!-- Generator: Sketch 51.2 (57519) - http://www.bohemiancoding.com/sketch -->
    <title>logo copy</title>
    <desc>Created with Sketch.</desc>
    <defs>
        <linearGradient x1="0%" y1="50.7055163%" x2="100%" y2="50.7055163%" id="linearGradient-1">
            <stop stop-color="#FF5500" offset="0%"></stop>
            <stop stop-color="#FF5500" offset="40.9877232%"></stop>
            <stop stop-color="#FF2000" offset="58.1981215%"></stop>
            <stop stop-color="#FF2000" offset="100%"></stop>
        </linearGradient>
        <linearGradient x1="2.1484375%" y1="50.7055163%" x2="100%" y2="50.7055163%" id="linearGradient-2">
            <stop stop-color="#FF452A" offset="0%"></stop>
            <stop stop-color="#FF2000" offset="100%"></stop>
        </linearGradient>
        <path d="M87.8844405,13.0769203 L76.3724285,5.62264392e-05 L56.1562123,5.62264392e-05 L35.9399961,5.62264392e-05 L24.4279841,13.0769203 C24.4279841,13.0769203 14.319876,10.2655984 9.5466027,15.0448457 C9.5466027,15.0448457 23.0240802,13.8266999 27.6569631,21.3703201 C27.6569631,21.3703201 40.1517078,23.7599438 41.8363925,23.7599438 C43.5210772,23.7599438 47.1712273,22.3542828 50.5405967,21.229754 C53.9099661,20.1052252 56.1562123,20.0970724 56.1562123,20.0970724 C56.1562123,20.0970724 58.4024586,20.1052252 61.7718279,21.229754 C65.1411973,22.3542828 68.7913474,23.7599438 70.4760321,23.7599438 C72.1607168,23.7599438 84.6554616,21.3703201 84.6554616,21.3703201 C89.2883444,13.8266999 102.765822,15.0448457 102.765822,15.0448457 C97.9925486,10.2655984 87.8844405,13.0769203 87.8844405,13.0769203" id="path-3"></path>
    </defs>
    <g id="starting-collection" stroke="none" stroke-width="1" fill="none" fill-rule="evenodd">
        <g id="Logos" transform="translate(-796.000000, -298.000000)">
            <g id="logo-white" transform="translate(795.000000, 298.000000)">
                <g id="Group-5" transform="translate(-9.000000, 0.000000)">
                    <g id="Group-4" transform="translate(153.000000, 26.000000)" fill="#FFFFFF" fill-rule="nonzero">
                        <path d="M0.217649471,45.5301365 L0.217649471,0.204277028 L4.5579139,0.204277028 C8.09396843,0.204277028 10.960507,3.06794906 10.960507,6.60046753 L10.960507,26.7536183 C17.9161791,20.5540896 23.8313127,18.0724051 31.7150328,17.9132027 C46.8356516,17.6041628 59.9595613,28.8232495 61.2063328,43.8819235 C62.6968339,61.8717945 49.6010469,75.4133633 32.5399643,75.4133633 C13.8102702,75.4133633 0.217649471,63.8103179 0.217649471,45.5301365 Z M10.7823968,49.0887784 C11.8416838,58.4536254 20.7940651,66.188989 30.2339058,66.3388266 C42.5328841,66.5261235 50.9134379,58.5191793 50.9134379,46.6726479 C50.9134379,34.8261164 42.7203685,27.0064692 30.7682364,27.0064692 C17.9911729,26.9783746 9.3293925,36.2495731 10.7823968,49.0887784 Z" id="Shape"></path>
                        <path d="M79.1298437,19.0463492 L79.1298437,27.1188473 C85.8886572,19.6269697 89.8914497,17.6135276 97.8032924,17.6135276 C100.104744,17.6160057 102.402377,17.8007599 104.674597,18.1660536 L104.674597,28.8888034 C102.249947,28.222968 99.7460423,27.8890278 97.2314649,27.8961296 C91.5038158,27.8961296 86.6948403,29.769099 83.1701331,33.3090112 C80.0766401,36.4087755 79.1579664,38.8342709 79.1579664,43.7039914 L79.1579664,73.5591236 L68.0213916,73.5591236 L68.0213916,19.0463492 L79.1298437,19.0463492 Z" id="Shape"></path>
                        <path d="M107.318127,37.0736797 C107.889954,31.7638114 108.921119,28.8888034 111.208429,26.1261735 C115.792423,20.5072653 124.041738,17.6135276 135.722017,17.6135276 C145.002496,17.6135276 151.76131,19.055714 156.457795,22.1461136 C160.357471,24.6839871 161.960462,28.4486556 161.960462,35.0789673 L161.960462,59.2870968 C161.960462,64.596965 163.338473,66.4699344 167.116284,66.3669211 C167.960262,66.3371745 168.802031,66.2621476 169.63795,66.1421648 L169.63795,73.4373806 C167.759891,74.0785572 165.781629,74.3767444 163.79781,74.3176762 C156.814015,74.3176762 153.608031,72.2199505 151.433212,66.1327999 C144.561908,72.435342 137.456248,75.0855937 127.26647,75.0855937 C113.636352,75.0855937 105.274547,68.8954298 105.274547,58.8282193 C105.214828,53.087409 108.595421,47.8667398 113.861333,45.5675959 C117.985991,43.7976398 120.507656,43.2451139 132.300427,42.0276837 C142.377714,41.03501 144.102571,40.8102536 146.961709,39.9205932 C150.055202,38.9279194 151.433212,37.2703415 151.433212,34.5077116 C151.433212,28.6453174 146.511746,25.9950657 136.200103,25.9950657 C126.450912,25.9950657 121.42633,27.9242242 119.410872,32.8501337 C118.412617,35.3690604 115.982575,37.0294731 113.270757,37.0455851 L107.318127,37.0736797 Z M151.376967,46.3636079 C144.311668,48.4165387 137.056566,49.7500169 129.722516,50.3436679 C119.757719,51.3363417 116.664226,53.2186759 116.664226,58.1914097 C116.664226,63.7166694 121.24822,66.619772 130.294343,66.619772 C137.737475,66.619772 143.352633,64.7468026 147.3648,61.0945122 C150.570784,58.1071261 151.376967,56.0094003 151.376967,50.7931805 L151.376967,46.3636079 Z" id="Shape"></path>
                        <path d="M196.523216,73.5497588 L193.654704,73.5497588 C191.127702,73.5656949 188.816081,72.1305721 187.711448,69.860009 L163.685319,19.0463492 L170.359765,19.0463492 C174.249112,19.0153243 177.789868,21.2816397 179.38714,24.8244598 L195.417058,61.3473631 L211.981307,24.6839871 C213.602175,21.1969816 217.113457,18.9780785 220.961811,19.0088898 L227.026932,19.008573 L202.43835,69.9161981 C201.322211,72.1557385 199.027434,73.5653787 196.523216,73.5497588 Z" id="Shape"></path>
                        <path d="M234.554432,49.4540074 C235.698087,59.9613658 243.928653,66.4792993 256.199508,66.4792993 C263.164555,66.4792993 268.385996,64.4096681 271.620102,60.2797706 C273.506418,57.9115056 276.371169,56.5322836 279.400706,56.5338318 L285.859544,56.5338318 C280.235012,68.9141595 270.167098,75.00131 255.15897,75.00131 C236.410527,75.00131 223.774077,63.6136561 223.774077,46.5883642 C223.774077,29.5630724 236.719877,17.6228925 255.393325,17.6228925 C268.901578,17.6228925 279.766301,23.7006782 284.144062,33.8802669 C286.0939,38.5626904 286.890709,42.7206824 286.890709,49.4633723 L234.554432,49.4540074 Z M275.557275,41.0256451 C273.03561,31.4079472 265.592478,25.9857008 255.280835,25.9857008 C244.969191,25.9857008 237.52606,31.4079472 234.891904,41.0256451 L275.557275,41.0256451 Z" id="Shape"></path>
                    </g>
                    <g id="build-icons/Stable">
                        <g id="Logo" transform="translate(10.381810, 0.000000)">
                            <path d="M108.381438,31.6316453 L111.470026,24.041076 C111.470026,24.041076 107.539095,19.824093 102.765822,15.0448457 C97.9925486,10.2655984 87.8844405,13.0769203 87.8844405,13.0769203 L76.3724285,5.62264392e-05 L56.1562123,5.62264392e-05 L35.9399961,5.62264392e-05 L24.4279841,13.0769203 C24.4279841,13.0769203 14.319876,10.2655984 9.5466027,15.0448457 C4.77332943,19.824093 0.842398498,24.041076 0.842398498,24.041076 L3.93098709,31.6316453 L5.61561562e-05,42.8769331 C5.61561562e-05,42.8769331 11.5612048,86.7209047 12.9159721,92.0750674 C15.5833895,102.617525 17.4084646,106.693942 24.9895456,112.035453 C32.5706267,117.376965 46.328885,126.654328 48.5751312,128.059988 C50.8213775,129.465649 53.6291853,131.860052 56.1562123,131.860052 C58.6832393,131.860052 61.4910471,129.465649 63.7372934,128.059988 C65.9835396,126.654328 79.7417979,117.376965 87.322879,112.035453 C94.9039601,106.693942 96.7290351,102.617525 99.3964526,92.0750674 C100.750939,86.7209047 112.312368,42.8769331 112.312368,42.8769331 L108.381438,31.6316453 Z" id="Head" fill="url(#linearGradient-1)"></path>
                            <path d="M84.6554616,21.3703201 C84.6554616,21.3703201 99.4627168,39.2924976 99.4627168,43.1229238 C99.4627168,46.9533499 97.6000171,47.9643013 95.7272093,49.9555607 C93.8544015,51.94682 85.6749766,60.6433634 84.6245757,61.7600204 C83.5741748,62.8769587 81.3874541,64.5702179 82.6737108,67.617972 C83.9599676,70.6657262 85.8574841,74.5439448 83.7474165,78.4775465 C81.6370682,82.4111482 78.0220156,85.0366417 75.7055742,84.6025736 C73.3891327,84.1682244 67.9490051,81.3217609 65.948442,80.0215245 C63.947879,78.7212881 57.6072874,73.4854821 57.6072874,71.482134 C57.6072874,69.4790672 64.1615532,65.8822618 65.3722799,65.0650105 C66.5835682,64.2480404 72.1065261,61.085022 72.2196808,59.8435423 C72.3325547,58.6017814 72.2895952,58.2377152 70.6596628,55.1700006 C69.0297303,52.102005 66.094448,48.0081579 66.5830066,45.2842681 C67.0715652,42.5606594 71.8055291,41.1443154 75.1838835,39.8668507 C78.5616763,38.5896671 85.0659631,36.1772717 85.8782619,35.8022414 C86.6911222,35.4269299 86.4810982,35.0696109 84.0194931,34.83599 C81.5584495,34.6023692 74.5737468,33.6740707 71.4247904,34.5528899 C68.2758339,35.4317092 62.8960742,36.7687739 62.4603024,37.4777893 C62.0245306,38.1868047 61.6401417,38.2107009 62.0877063,40.656551 C62.5349901,43.1024011 64.8390772,54.8385458 65.0625787,56.923141 C65.286361,59.0077362 65.7238174,60.3858463 63.4789751,60.8997559 C61.233852,61.4136656 57.4548234,62.3059792 56.1562123,62.3059792 C54.8576012,62.3059792 51.0782919,61.4136656 48.8334495,60.8997559 C46.5883264,60.3858463 47.0257829,59.0077362 47.2495652,56.923141 C47.4733474,54.8385458 49.7771538,43.1024011 50.2247183,40.656551 C50.6720021,38.2107009 50.2876132,38.1868047 49.8521222,37.4777893 C49.4163505,36.7687739 44.0363099,35.4317092 40.8873535,34.5528899 C37.738397,33.6740707 30.7539751,34.6023692 28.2926508,34.83599 C25.8313264,35.0696109 25.6213024,35.4269299 26.433882,35.8022414 C27.2464616,36.1772717 33.7507483,38.5896671 37.1285411,39.8668507 C40.5066147,41.1443154 45.2408595,42.5606594 45.729418,45.2842681 C46.2179766,48.0081579 43.2824135,52.102005 41.6527619,55.1700006 C40.0228294,58.2377152 39.9795892,58.6017814 40.0927438,59.8435423 C40.2056177,61.085022 45.7288565,64.2480404 46.939864,65.0650105 C48.1508715,65.8822618 54.7048565,69.4790672 54.7048565,71.482134 C54.7048565,73.4854821 48.3645456,78.7212881 46.3639826,80.0215245 C44.3634195,81.3217609 38.9232919,84.1682244 36.6068505,84.6025736 C34.290409,85.0366417 30.6753565,82.4111482 28.5650081,78.4775465 C26.4549405,74.5439448 28.3524571,70.6657262 29.638433,67.617972 C30.9246898,64.5702179 28.7382498,62.8769587 27.6875682,61.7600204 C26.637448,60.6433634 18.4577423,51.94682 16.5849345,49.9555607 C14.7121267,47.9643013 12.8497078,46.9533499 12.8497078,43.1229238 C12.8497078,39.2924976 27.6569631,21.3703201 27.6569631,21.3703201 C27.6569631,21.3703201 40.1517078,23.7599438 41.8363925,23.7599438 C43.5210772,23.7599438 47.1712273,22.3542828 50.5405967,21.229754 C53.9099661,20.1052252 56.1562123,20.0970724 56.1562123,20.0970724 C56.1562123,20.0970724 58.4024586,20.1052252 61.7718279,21.229754 C65.1411973,22.3542828 68.7913474,23.7599438 70.4760321,23.7599438 C72.1607168,23.7599438 84.6554616,21.3703201 84.6554616,21.3703201 Z M73.555018,89.9262054 C74.4714865,90.5008396 73.912452,91.5840419 73.0776907,92.1749818 C72.2426486,92.7659217 61.0223679,101.465276 59.9335,102.426748 C58.8443514,103.388502 57.2441817,104.976617 56.1561562,104.976617 C55.0681306,104.976617 53.4676802,103.388502 52.3788123,102.426748 C51.2896637,101.465276 40.0696637,92.7659217 39.2346216,92.1749818 C38.3995796,91.5840419 37.8408258,90.5008396 38.7572943,89.9262054 C39.6740435,89.3518523 42.5416577,87.9020535 46.4987012,85.8517564 C50.4551832,83.8017405 55.386536,82.0587208 56.1561562,82.0587208 C56.9257763,82.0587208 61.8568483,83.8017405 65.8138919,85.8517564 C69.7706547,87.9020535 72.6382688,89.3518523 73.555018,89.9262054 Z" id="Face" fill="#FFFFFF"></path>
                            <mask id="mask-4" fill="white">
                                <use xlink:href="#path-3"></use>
                            </mask>
                            <use id="Top-Head" fill="url(#linearGradient-2)" xlink:href="#path-3"></use>
                        </g>
                    </g>
                </g>
            </g>
        </g>
    </g>
</svg>
